;Generated with Cura_SteamEngine 13.11.2
M109 T0 S210.000000
T0
;Sliced at: Fri 07-02-2014 13:03:19
;Basic settings: Layer height: 0.1 Walls: 1.5 Fill: 100
;Print time: #P_TIME#
;Filament used: #F_AMNT#m #F_WGHT#g
;Filament cost: #F_COST#
;M190 S70 ;Uncomment to add your own bed temperature line
;M109 S210 ;Uncomment to add your own temperature line
G21        ;metric values
G90        ;absolute positioning
M107       ;start with the fan off
G28 X0 Y0  ;move X/Y to min endstops
G28 Z0     ;move Z to min endstops
G1 Z15.0 F9000 ;move the platform down 15mm
G92 E0                  ;zero the extruded length
G1 F200 E3              ;extrude 3mm of feed stock
G92 E0                  ;zero the extruded length again
G1 F9000
;Put printing message on LCD screen
M117 Printing...

;Layer count: 100
;LAYER:0
M107
G0 F2520 X76.75 Y60.44 Z0.20
;TYPE:SKIRT
G1 F4200 E0.00000
G1 F1140 X78.95 Y58.24 E0.12266
G1 X108.20 Y58.24 E1.27797
G1 X110.40 Y60.45 E1.40091
G1 X110.37 Y70.53 E1.79923
G1 X110.32 Y70.97 E1.81637
G1 X110.16 Y71.63 E1.84329
G1 X110.07 Y71.91 E1.85510
G1 X109.83 Y72.47 E1.87909
G1 X109.70 Y72.73 E1.89047
G1 X109.39 Y73.24 E1.91425
G1 X109.22 Y73.48 E1.92597
G1 X108.82 Y73.95 E1.95023
G1 X108.61 Y74.16 E1.96185
G1 X108.15 Y74.56 E1.98599
G1 X107.90 Y74.74 E1.99796
G1 X107.39 Y75.05 E2.02172
G1 X107.13 Y75.18 E2.03294
G1 X106.57 Y75.41 E2.05709
G1 X106.28 Y75.51 E2.06902
G1 X105.62 Y75.67 E2.09607
G1 X105.18 Y75.72 E2.11341
G1 X78.95 Y75.75 E3.14932
G1 X76.75 Y73.55 E3.27209
G1 X76.75 Y60.44 E3.78981
G0 F2520 X77.25 Y60.65
G1 F1140 X79.16 Y58.74 E3.89611
G1 X107.99 Y58.74 E5.03506
G1 X109.90 Y60.66 E5.14161
G1 X109.87 Y70.50 E5.53065
G1 X109.82 Y70.88 E5.54549
G1 X109.68 Y71.49 E5.57047
G1 X109.60 Y71.74 E5.58067
G1 X109.38 Y72.26 E5.60309
G1 X109.27 Y72.49 E5.61299
G1 X108.97 Y72.97 E5.63521
G1 X108.82 Y73.18 E5.64539
G1 X108.45 Y73.61 E5.66808
G1 X108.27 Y73.79 E5.67816
G1 X107.84 Y74.17 E5.70074
G1 X107.62 Y74.32 E5.71107
G1 X107.14 Y74.61 E5.73333
G1 X106.92 Y74.72 E5.74303
G1 X106.40 Y74.94 E5.76564
G1 X106.15 Y75.03 E5.77599
G1 X105.53 Y75.17 E5.80109
G1 X105.15 Y75.22 E5.81612
G1 X79.16 Y75.25 E6.84271
G1 X77.25 Y73.34 E6.94909
G1 X77.25 Y60.65 E7.45046
G0 F2520 X81.10 Y62.51
G0 X81.75 Y63.24
;TYPE:WALL-INNER
G1 F1140 X105.39 Y63.24 E8.38403
G1 X105.37 Y70.16 E8.65707
G1 X105.31 Y70.33 E8.66429
G1 X105.25 Y70.43 E8.66872
G1 X105.17 Y70.53 E8.67396
G1 X105.09 Y70.60 E8.67817
G1 X104.99 Y70.66 E8.68279
G1 X104.88 Y70.70 E8.68743
G1 X104.81 Y70.72 E8.69026
G1 X81.75 Y70.74 E9.60082
G1 X81.75 Y63.24 E9.89700
G0 F2520 X96.03 Y66.63
G1 F1140 X96.00 Y66.94 E9.90956
G1 X96.00 Y67.05 E9.91355
G1 X96.05 Y67.47 E9.93043
G1 X96.16 Y67.88 E9.94714
G1 X96.29 Y68.17 E9.95966
G1 X96.35 Y68.26 E9.96389
G1 X96.52 Y68.52 E9.97649
G1 X96.81 Y68.84 E9.99329
G1 X97.24 Y69.15 E10.01418
G1 X97.62 Y69.33 E10.03093
G1 X98.03 Y69.45 E10.04765
G1 X98.34 Y69.49 E10.06019
G1 X98.45 Y69.49 E10.06438
G1 X98.87 Y69.47 E10.08104
G1 X99.29 Y69.37 E10.09792
G1 X99.58 Y69.25 E10.11052
G1 X99.95 Y69.03 E10.12734
G1 X100.03 Y68.97 E10.13149
G1 X100.35 Y68.68 E10.14823
G1 X100.60 Y68.35 E10.16484
G1 X100.80 Y67.97 E10.18178
G1 X100.91 Y67.67 E10.19435
G1 X100.99 Y67.26 E10.21088
G1 X101.00 Y66.84 E10.22759
G1 X100.91 Y66.31 E10.24864
G1 X100.76 Y65.91 E10.26551
G1 X100.54 Y65.55 E10.28217
G1 X100.27 Y65.23 E10.29891
G1 X100.03 Y65.02 E10.31144
G1 X99.95 Y64.95 E10.31559
G1 X99.58 Y64.74 E10.33241
G1 X99.18 Y64.59 E10.34930
G1 X98.77 Y64.51 E10.36602
G1 X98.45 Y64.49 E10.37855
G1 X98.34 Y64.50 E10.38275
G1 X97.92 Y64.56 E10.39944
G1 X97.52 Y64.69 E10.41615
G1 X97.15 Y64.89 E10.43296
G1 X96.81 Y65.15 E10.44965
G1 X96.52 Y65.46 E10.46645
G1 X96.35 Y65.73 E10.47905
G1 X96.29 Y65.82 E10.48328
G1 X96.13 Y66.21 E10.49988
G1 X96.03 Y66.63 E10.51686
G0 F2520 X96.53 Y66.69
G1 F1140 X96.50 Y67.03 E10.53016
G1 X96.53 Y67.30 E10.54102
G1 X96.63 Y67.69 E10.55699
G1 X96.77 Y68.00 E10.57039
G1 X96.97 Y68.28 E10.58382
G1 X97.20 Y68.52 E10.59719
G1 X97.43 Y68.68 E10.60806
G1 X97.48 Y68.71 E10.61063
G1 X97.79 Y68.86 E10.62400
G1 X98.11 Y68.95 E10.63737
G1 X98.39 Y68.99 E10.64824
G1 X98.45 Y68.99 E10.65081
G1 X98.79 Y68.97 E10.66410
G1 X99.12 Y68.90 E10.67759
G1 X99.43 Y68.77 E10.69106
G1 X99.72 Y68.58 E10.70447
G1 X99.97 Y68.35 E10.71784
G1 X100.18 Y68.09 E10.73114
G1 X100.34 Y67.79 E10.74466
G1 X100.45 Y67.47 E10.75801
G1 X100.49 Y67.20 E10.76880
G1 X100.50 Y66.86 E10.78215
G1 X100.43 Y66.46 E10.79818
G1 X100.31 Y66.14 E10.81165
G1 X100.14 Y65.85 E10.82502
G1 X99.92 Y65.59 E10.83839
G1 X99.67 Y65.37 E10.85176
G1 X99.38 Y65.19 E10.86524
G1 X99.06 Y65.07 E10.87869
G1 X98.72 Y65.01 E10.89204
G1 X98.45 Y65.00 E10.90291
G1 X98.39 Y65.00 E10.90548
G1 X98.05 Y65.05 E10.91882
G1 X97.73 Y65.15 E10.93222
G1 X97.48 Y65.27 E10.94310
G1 X97.43 Y65.31 E10.94567
G1 X97.20 Y65.47 E10.95654
G1 X96.97 Y65.71 E10.96991
G1 X96.74 Y66.05 E10.98587
G1 X96.61 Y66.36 E10.99918
G1 X96.53 Y66.69 E11.01272
G0 F2520 X97.01 Y68.24
G0 X98.45 Y68.94
G0 X104.87 Y71.22
G1 F1140 X81.25 Y71.24 E11.94547
G1 X81.25 Y62.74 E12.28115
G1 X105.89 Y62.74 E13.25430
G1 X105.87 Y70.22 E13.54938
G1 X105.83 Y70.38 E13.55604
G1 X105.75 Y70.57 E13.56403
G1 X105.66 Y70.72 E13.57126
G1 X105.53 Y70.88 E13.57936
G1 X105.38 Y71.00 E13.58700
G1 X105.22 Y71.10 E13.59442
G1 X105.03 Y71.18 E13.60254
G1 X104.87 Y71.22 E13.60896
G0 F2520 X104.93 Y71.72
;TYPE:WALL-OUTER
G1 F1140 X80.75 Y71.75 E14.56379
G1 X80.75 Y62.24 E14.93900
G1 X106.39 Y62.24 E15.95169
G1 X106.37 Y70.28 E16.26897
G1 X106.31 Y70.53 E16.27936
G1 X106.20 Y70.79 E16.29039
G1 X106.06 Y71.02 E16.30085
G1 X105.88 Y71.23 E16.31181
G1 X105.67 Y71.41 E16.32295
G1 X105.45 Y71.55 E16.33327
G1 X105.18 Y71.66 E16.34456
G1 X104.93 Y71.72 E16.35488
G0 F2520 X104.89 Y71.37
G0 X100.06 Y68.00
G0 X99.75 Y67.83
G1 F1140 X99.88 Y67.60 E16.36499
G1 X99.96 Y67.36 E16.37501
G1 X100.00 Y67.11 E16.38502
G1 X100.00 Y66.88 E16.39422
G1 X99.95 Y66.61 E16.40517
G1 X99.87 Y66.37 E16.41524
G1 X99.74 Y66.15 E16.42525
G1 X99.58 Y65.95 E16.43533
G1 X99.39 Y65.78 E16.44535
G1 X99.17 Y65.65 E16.45547
G1 X98.93 Y65.56 E16.46548
G1 X98.70 Y65.51 E16.47473
G1 X98.45 Y65.50 E16.48474
G1 X98.18 Y65.53 E16.49561
G1 X97.93 Y65.61 E16.50568
G1 X97.71 Y65.72 E16.51573
G1 X97.50 Y65.88 E16.52574
G1 X97.34 Y66.04 E16.53495
G1 X97.33 Y66.06 E16.53582
G1 X97.19 Y66.27 E16.54588
G1 X97.08 Y66.50 E16.55587
G1 X97.02 Y66.75 E16.56597
G1 X97.00 Y67.00 E16.57603
G1 X97.03 Y67.26 E16.58610
G1 X97.09 Y67.50 E16.59612
G1 X97.20 Y67.73 E16.60618
G1 X97.33 Y67.93 E16.61537
G1 X97.34 Y67.94 E16.61624
G1 X97.52 Y68.13 E16.62627
G1 X97.73 Y68.28 E16.63633
G1 X97.95 Y68.39 E16.64633
G1 X98.20 Y68.46 E16.65639
G1 X98.45 Y68.49 E16.66645
G1 X98.70 Y68.48 E16.67646
G1 X98.95 Y68.43 E16.68653
G1 X99.19 Y68.33 E16.69661
G1 X99.40 Y68.19 E16.70669
G1 X99.59 Y68.02 E16.71673
G1 X99.75 Y67.83 E16.72671
G0 F2520 X100.69 Y68.52
;TYPE:FILL
G1 F1140 X102.72 Y70.55 E16.83993
G0 F2520 X103.43 Y70.55
G1 F1140 X100.95 Y68.07 E16.97826
G0 F2520 X101.11 Y67.53
G1 F1140 X104.13 Y70.54 E17.14675
G0 F2520 X104.83 Y70.53
G1 F1140 X101.17 Y66.88 E17.35094
G0 F2520 X100.96 Y65.96
G1 F1140 X105.18 Y70.17 E17.58634
G0 F2520 X105.19 Y69.49
G1 F1140 X99.13 Y63.42 E17.92522
G0 F2520 X98.42 Y63.42
G1 F1140 X99.53 Y64.53 E17.98734
G0 F2520 X98.62 Y64.33
G1 F1140 X97.71 Y63.42 E18.03794
G0 F2520 X97.01 Y63.42
G1 F1140 X97.97 Y64.38 E18.09145
G0 F2520 X97.43 Y64.55
G1 F1140 X96.30 Y63.42 E18.15437
G0 F2520 X95.59 Y63.42
G1 F1140 X96.97 Y64.80 E18.23160
G0 F2520 X96.59 Y65.13
G1 F1140 X94.89 Y63.42 E18.32708
G0 F2520 X94.18 Y63.42
G1 F1140 X96.28 Y65.52 E18.44424
G0 F2520 X96.03 Y65.98
G1 F1140 X93.47 Y63.42 E18.58734
G0 F2520 X92.76 Y63.42
G1 F1140 X95.87 Y66.53 E18.76095
G0 F2520 X95.84 Y67.20
G1 F1140 X92.06 Y63.42 E18.97236
G0 F2520 X91.35 Y63.42
G1 F1140 X96.10 Y68.17 E19.23779
G0 F2520 X97.31 Y69.38
G1 F1140 X98.48 Y70.55 E19.30328
G0 F2520 X97.77 Y70.55
G1 F1140 X90.64 Y63.42 E19.70160
G0 F2520 X89.94 Y63.42
G1 F1140 X97.07 Y70.55 E20.09996
G0 F2520 X96.36 Y70.55
G1 F1140 X89.23 Y63.42 E20.49836
G0 F2520 X88.52 Y63.42
G1 F1140 X95.66 Y70.55 E20.89684
G0 F2520 X94.95 Y70.55
G1 F1140 X87.81 Y63.42 E21.29537
G0 F2520 X87.11 Y63.42
G1 F1140 X94.24 Y70.56 E21.69396
G0 F2520 X93.54 Y70.56
G1 F1140 X86.40 Y63.42 E22.09255
G0 F2520 X85.69 Y63.42
G1 F1140 X92.83 Y70.56 E22.49120
G0 F2520 X92.12 Y70.56
G1 F1140 X84.99 Y63.42 E22.88988
G0 F2520 X84.28 Y63.42
G1 F1140 X91.42 Y70.56 E23.28858
G0 F2520 X90.71 Y70.56
G1 F1140 X83.57 Y63.42 E23.68734
G0 F2520 X82.86 Y63.42
G1 F1140 X90.00 Y70.56 E24.08612
G0 F2520 X89.30 Y70.56
G1 F1140 X82.16 Y63.42 E24.48497
G0 F2520 X81.93 Y63.90
G1 F1140 X88.59 Y70.56 E24.85717
G0 F2520 X87.89 Y70.56
G1 F1140 X81.93 Y64.60 E25.18990
G0 F2520 X81.93 Y65.31
G1 F1140 X87.18 Y70.56 E25.48320
G0 F2520 X86.47 Y70.56
G1 F1140 X81.93 Y66.02 E25.73707
G0 F2520 X81.93 Y66.72
G1 F1140 X85.77 Y70.56 E25.95150
G0 F2520 X85.06 Y70.56
G1 F1140 X81.93 Y67.43 E26.12647
G0 F2520 X81.93 Y68.14
G1 F1140 X84.35 Y70.56 E26.26198
G0 F2520 X83.65 Y70.57
G1 F1140 X81.93 Y68.85 E26.35803
G0 F2520 X81.93 Y69.55
G1 F1140 X82.94 Y70.57 E26.41464
G0 F2520 X82.23 Y70.57
G1 F1140 X81.93 Y70.26 E26.43178
G0 F2520 X98.30 Y69.66
G1 F1140 X99.19 Y70.55 E26.48144
G0 F2520 X99.89 Y70.55
G1 F1140 X98.97 Y69.62 E26.53311
G0 F2520 X99.52 Y69.46
G1 F1140 X100.60 Y70.55 E26.59366
G0 F2520 X101.31 Y70.55
G1 F1140 X99.98 Y69.22 E26.66789
G0 F2520 X100.37 Y68.90
G1 F1140 X102.01 Y70.55 E26.75983
G0 F2520 X105.20 Y68.78
G1 F1140 X99.83 Y63.42 E27.05939
G0 F2520 X100.54 Y63.42
G1 F1140 X105.20 Y68.08 E27.31956
G0 F2520 X105.20 Y67.37
G1 F1140 X101.25 Y63.42 E27.54036
G0 F2520 X101.96 Y63.42
G1 F1140 X105.20 Y66.67 E27.72176
G0 F2520 X105.21 Y65.96
G1 F1140 X102.66 Y63.42 E27.86377
G0 F2520 X103.37 Y63.42
G1 F1140 X105.21 Y65.26 E27.96644
G0 F2520 X105.21 Y64.55
G1 F1140 X104.08 Y63.42 E28.02975
G0 F2520 X104.79 Y63.42
G1 F1140 X105.21 Y63.85 E28.05368
;LAYER:1
M106 S5
G0 F9000 X105.39 Y63.24 Z0.30
;TYPE:WALL-INNER
G1 F1920 X105.37 Y70.16 E28.19020
G1 X105.31 Y70.33 E28.19383
G1 X105.25 Y70.43 E28.19608
G1 X105.17 Y70.53 E28.19862
G1 X105.08 Y70.60 E28.20082
G1 X104.88 Y70.70 E28.20536
G1 X104.81 Y70.72 E28.20679
G1 X81.75 Y70.74 E28.66206
G1 X81.75 Y63.24 E28.81015
G1 X105.39 Y63.24 E29.27694
G0 F9000 X100.76 Y65.91
G1 F1920 X100.54 Y65.55 E29.28527
G1 X100.27 Y65.23 E29.29364
G1 X100.03 Y65.02 E29.29991
G1 X99.95 Y64.95 E29.30198
G1 X99.58 Y64.74 E29.31039
G1 X99.18 Y64.59 E29.31884
G1 X98.77 Y64.51 E29.32720
G1 X98.45 Y64.49 E29.33346
G1 X98.34 Y64.50 E29.33556
G1 X97.92 Y64.56 E29.34391
G1 X97.52 Y64.69 E29.35226
G1 X97.15 Y64.89 E29.36066
G1 X96.81 Y65.15 E29.36901
G1 X96.52 Y65.46 E29.37741
G1 X96.35 Y65.73 E29.38371
G1 X96.29 Y65.82 E29.38583
G1 X96.13 Y66.21 E29.39413
G1 X96.03 Y66.63 E29.40262
G1 X96.00 Y66.94 E29.40890
G1 X96.00 Y67.05 E29.41089
G1 X96.05 Y67.47 E29.41933
G1 X96.16 Y67.88 E29.42769
G1 X96.29 Y68.17 E29.43394
G1 X96.35 Y68.26 E29.43606
G1 X96.52 Y68.52 E29.44236
G1 X96.81 Y68.84 E29.45076
G1 X97.24 Y69.15 E29.46121
G1 X97.62 Y69.33 E29.46958
G1 X98.03 Y69.45 E29.47794
G1 X98.34 Y69.49 E29.48421
G1 X98.45 Y69.49 E29.48631
G1 X98.87 Y69.47 E29.49464
G1 X99.29 Y69.37 E29.50308
G1 X99.58 Y69.25 E29.50938
G1 X99.95 Y69.03 E29.51779
G1 X100.03 Y68.97 E29.51986
G1 X100.35 Y68.68 E29.52823
G1 X100.60 Y68.35 E29.53654
G1 X100.80 Y67.97 E29.54501
G1 X100.91 Y67.67 E29.55129
G1 X100.99 Y67.26 E29.55956
G1 X101.00 Y66.84 E29.56787
G1 X100.91 Y66.31 E29.57842
G1 X100.76 Y65.91 E29.58687
G0 F9000 X100.31 Y66.14
G1 F1920 X100.14 Y65.85 E29.59355
G1 X99.92 Y65.59 E29.60024
G1 X99.67 Y65.37 E29.60692
G1 X99.38 Y65.19 E29.61366
G1 X99.06 Y65.07 E29.62039
G1 X98.72 Y65.01 E29.62706
G1 X98.45 Y65.00 E29.63250
G1 X98.39 Y65.00 E29.63378
G1 X98.05 Y65.05 E29.64045
G1 X97.73 Y65.15 E29.64715
G1 X97.48 Y65.27 E29.65259
G1 X97.43 Y65.31 E29.65388
G1 X97.20 Y65.47 E29.65931
G1 X96.97 Y65.71 E29.66600
G1 X96.74 Y66.05 E29.67398
G1 X96.61 Y66.36 E29.68063
G1 X96.53 Y66.69 E29.68740
G1 X96.50 Y67.03 E29.69405
G1 X96.53 Y67.30 E29.69948
G1 X96.63 Y67.69 E29.70747
G1 X96.77 Y68.00 E29.71417
G1 X96.97 Y68.28 E29.72088
G1 X97.20 Y68.52 E29.72757
G1 X97.43 Y68.68 E29.73301
G1 X97.48 Y68.71 E29.73429
G1 X97.79 Y68.86 E29.74098
G1 X98.11 Y68.95 E29.74766
G1 X98.39 Y68.99 E29.75310
G1 X98.45 Y68.99 E29.75438
G1 X98.79 Y68.97 E29.76103
G1 X99.12 Y68.90 E29.76777
G1 X99.43 Y68.77 E29.77451
G1 X99.72 Y68.58 E29.78121
G1 X99.97 Y68.35 E29.78789
G1 X100.18 Y68.09 E29.79455
G1 X100.34 Y67.79 E29.80131
G1 X100.45 Y67.47 E29.80798
G1 X100.49 Y67.20 E29.81337
G1 X100.50 Y66.86 E29.82003
G1 X100.43 Y66.46 E29.82807
G1 X100.31 Y66.14 E29.83480
G0 F9000 X105.89 Y62.74
G1 F1920 X105.87 Y70.22 E29.98234
G1 X105.83 Y70.38 E29.98567
G1 X105.76 Y70.56 E29.98958
G1 X105.65 Y70.73 E29.99345
G1 X105.53 Y70.88 E29.99730
G1 X105.38 Y71.00 E30.00109
G1 X105.21 Y71.11 E30.00499
G1 X105.03 Y71.18 E30.00890
G1 X104.87 Y71.22 E30.01213
G1 X81.25 Y71.24 E30.47850
G1 X81.25 Y62.74 E30.64634
G1 X105.89 Y62.74 E31.13292
G0 F9000 X106.39 Y62.24
;TYPE:WALL-OUTER
G1 F1920 X106.37 Y70.28 E31.29156
G1 X106.31 Y70.53 E31.29675
G1 X106.20 Y70.79 E31.30227
G1 X106.06 Y71.02 E31.30760
G1 X105.88 Y71.23 E31.31297
G1 X105.67 Y71.41 E31.31856
G1 X105.44 Y71.55 E31.32380
G1 X105.18 Y71.66 E31.32934
G1 X104.93 Y71.72 E31.33451
G1 X80.75 Y71.75 E31.81193
G1 X80.75 Y62.24 E31.99954
G1 X106.39 Y62.24 E32.50588
G0 F9000 X106.04 Y62.51
G0 X100.01 Y65.93
G0 X99.74 Y66.15
G1 F1920 X99.58 Y65.95 E32.51092
G1 X99.39 Y65.78 E32.51593
G1 X99.17 Y65.65 E32.52099
G1 X98.93 Y65.56 E32.52600
G1 X98.70 Y65.51 E32.53062
G1 X98.45 Y65.50 E32.53562
G1 X98.18 Y65.53 E32.54106
G1 X97.93 Y65.61 E32.54609
G1 X97.71 Y65.72 E32.55112
G1 X97.50 Y65.88 E32.55612
G1 X97.34 Y66.04 E32.56073
G1 X97.33 Y66.06 E32.56117
G1 X97.19 Y66.27 E32.56619
G1 X97.08 Y66.50 E32.57119
G1 X97.02 Y66.75 E32.57624
G1 X97.00 Y67.00 E32.58127
G1 X97.03 Y67.26 E32.58631
G1 X97.09 Y67.50 E32.59132
G1 X97.20 Y67.73 E32.59634
G1 X97.33 Y67.93 E32.60094
G1 X97.34 Y67.94 E32.60137
G1 X97.52 Y68.13 E32.60639
G1 X97.73 Y68.28 E32.61142
G1 X97.95 Y68.39 E32.61642
G1 X98.20 Y68.46 E32.62145
G1 X98.45 Y68.49 E32.62648
G1 X98.70 Y68.48 E32.63148
G1 X98.95 Y68.43 E32.63652
G1 X99.19 Y68.33 E32.64156
G1 X99.40 Y68.19 E32.64660
G1 X99.59 Y68.02 E32.65162
G1 X99.75 Y67.83 E32.65661
G1 X99.88 Y67.60 E32.66167
G1 X99.96 Y67.36 E32.66668
G1 X100.00 Y67.11 E32.67168
G1 X100.00 Y66.88 E32.67626
G1 X99.95 Y66.61 E32.68175
G1 X99.87 Y66.37 E32.68679
G1 X99.74 Y66.15 E32.69180
G0 F9000 X100.83 Y65.69
;TYPE:FILL
G1 F1920 X103.10 Y63.42 E32.75529
G0 F9000 X102.40 Y63.42
G1 F1920 X100.54 Y65.28 E32.80711
G0 F9000 X100.19 Y64.92
G1 F1920 X101.69 Y63.42 E32.84907
G0 F9000 X100.98 Y63.42
G1 F1920 X99.76 Y64.64 E32.88320
G0 F9000 X99.26 Y64.43
G1 F1920 X100.28 Y63.42 E32.91146
G0 F9000 X99.57 Y63.42
G1 F1920 X98.66 Y64.33 E32.93685
G0 F9000 X97.89 Y64.39
G1 F1920 X98.86 Y63.42 E32.96394
G0 F9000 X98.15 Y63.42
G1 F1920 X91.01 Y70.56 E33.16335
G0 F9000 X91.72 Y70.56
G1 F1920 X95.91 Y66.37 E33.28026
G0 F9000 X95.84 Y67.15
G1 F1920 X92.43 Y70.56 E33.37538
G0 F9000 X93.14 Y70.56
G1 F1920 X95.94 Y67.75 E33.45377
G0 F9000 X96.14 Y68.26
G1 F1920 X93.84 Y70.56 E33.51794
G0 F9000 X94.55 Y70.56
G1 F1920 X96.43 Y68.68 E33.57033
G0 F9000 X96.78 Y69.03
G1 F1920 X95.26 Y70.56 E33.61285
G0 F9000 X95.97 Y70.55
G1 F1920 X97.20 Y69.32 E33.64719
G0 F9000 X97.69 Y69.54
G1 F1920 X96.68 Y70.55 E33.67559
G0 F9000 X97.38 Y70.55
G1 F1920 X98.28 Y69.66 E33.70060
G0 F9000 X99.04 Y69.61
G1 F1920 X98.09 Y70.55 E33.72702
G0 F9000 X98.80 Y70.55
G1 F1920 X105.21 Y64.14 E33.90604
G0 F9000 X105.20 Y63.45
G1 F1920 X101.11 Y67.53 E34.02010
G0 F9000 X101.17 Y66.77
G1 F1920 X104.52 Y63.42 E34.11374
G0 F9000 X103.81 Y63.42
G1 F1920 X101.05 Y66.18 E34.19095
G0 F9000 X105.21 Y66.27
G1 F1920 X100.92 Y70.55 E34.31051
G0 F9000 X101.63 Y70.55
G1 F1920 X105.20 Y66.98 E34.41024
G0 F9000 X105.20 Y67.69
G1 F1920 X102.34 Y70.55 E34.49012
G0 F9000 X103.05 Y70.55
G1 F1920 X105.20 Y68.40 E34.55016
G0 F9000 X105.20 Y69.11
